X:62
T:Over the Waterfall
M:4/4
C: Traditional
R: Reel
K: D
de|: "D"f2a2 "A"gfe2| "D"dedB A2de| f2a2 "A"gfe2| "D"d6 de|| 
|    "D"f2a2 "A"gfe2| "D"dedB A2AB| "C"=c3d B2A2| "G"G4 G4 :|
FG|: "D"A2AA "G"B2B2| "D"ABAG F2FG| A2d2 "A7"cde2| "D"d6FG|| 
|    "D"A2AA "G"B2B2| "D"ABAG F2FG| A2AA "A7"GFE2| "D"D4 D4 :|

